dist/img/svg/facebook.svg

<svg width="12" height="24" viewBox="0 0 12 24" fill="none" xmlns="http://www.w3.org/2000/svg">
<path fill-rule="evenodd" clip-rule="evenodd" d="M11.5222 8.19091L11.2539 11.5562H7.67813V23.25H3.16058V11.5562H0.75V8.19091H3.16058V7.13575V6.10131V5.92891C3.16058 4.93345 3.18709 3.3952 3.93696 2.443C4.72724 1.43475 5.81228 0.75 7.67813 0.75C10.7187 0.75 12 1.16792 12 1.16792L11.3972 4.61484C11.3972 4.61484 10.3923 4.3346 9.45561 4.3346C8.51763 4.3346 7.67813 4.65748 7.67813 5.56277V5.92891V7.13575V8.19091H11.5222Z" fill="white"/>
</svg>

<svg width="12" height="24" viewBox="0 0 12 24" fill="none" xmlns="http://www.w3.org/2000/svg"><path fill-rule="evenodd" clip-rule="evenodd" d="M11.522 8.19l-.268 3.366H7.678V23.25H3.161V11.556H.75V8.191h2.41V5.929c0-.996.027-2.534.777-3.486C4.727 1.435 5.812.75 7.678.75c3.04 0 4.322.418 4.322.418l-.603 3.447s-1.005-.28-1.941-.28c-.938 0-1.778.322-1.778 1.228V8.19h3.844z" fill="#fff"/></svg>
